X: 10807
T: Dragon's Teeth
R: reel
M: 4/4
K: Dminor
|:A3 G F2 FG|FE D2 D2 EF|GF E2 E2 GF|E2 EF G2 FG|
A3 G F2 FG|FE D2 D2 AG|FE D2 E2 A2|D4 D4:|
|:E2 G2 C3 D|E3 F G2 FE|F3 E F2 G2|A4 G4|
A3 G F2 FG|FE D2 D2 AG|FE D2 E2 A2|D4 D4:|

